X: 452
T: Bonny Jem of Aberdeen
%R: march, reel
Z: 2017 John Chambers <jc:trillian.mit.edu>
B: John Treat - "Gamut for the Fifes", 1779, p.45 #2
F: https://archive.org/details/GamutFortheFifes
N: The right edge of the page is missing, ...
N: Bars 10-12 filled in from several versions found in other places, that were all the same.
N: Bars 22-26 not filled in, since various versions have different notes for the 2nd half of the tune.
N: Missing measures have been "reconstructed" by comparing several other old versions of the song.
N: Staff breaks in the book are preserved, to make sense of the misssing/reconstructed portions.
M: 2/4
L: 1/8
K: G
% - - - - - - - - - - - - - - - - - - - - - - - - -
d |\
B>cBA | BGGG | A>BAB | cedc |\
B>cBA | BGGD | Eedc | BGG2 ||\
B>cBA | "?"F2"?"A2"?"d2 | "?"B>"?"c"?"B"?"G | "?"F"?"A H"?"d"?"A |
d>efA | B>^cdB | A>BAG | AD Dd |]\
d>edB | cAAB | GEEA | F2dD |\
d>edB | "?"c"?"A"?"A"?"B | "?"G"?"E"?"F"?"A | H"?"D3"?"d |\
"?"B>"?"c"?"B"?"A ||
BGGG | dBBB | Hg3 f |\
e>feg | gBAHG | AEEF | G3 |]\
y4 y4 y4 y4 y4 y4 y4 y4 y4 y4 y4 y4 y4 y4 % [Fill last staff]
% - - - - - - - - - - - - - - - - - - - - - - - - -
